dist/img/svg/ic_cases.svg

<svg width="25" height="24" viewBox="0 0 25 24" fill="none" xmlns="http://www.w3.org/2000/svg">
<path fill-rule="evenodd" clip-rule="evenodd" d="M12.3334 9.692C10.1374 9.692 7.13237 9.864 5.28537 9.985C5.00042 10.0014 4.73042 10.1179 4.52309 10.3141C4.31577 10.5102 4.18446 10.7734 4.15237 11.057C4.01837 12.261 3.87237 13.867 3.87237 15.077C3.87237 16.287 4.01837 17.893 4.15237 19.097C4.18468 19.3804 4.31608 19.6433 4.52339 19.8393C4.7307 20.0353 5.00057 20.1517 5.28537 20.168C7.13237 20.29 10.1374 20.462 12.3334 20.462C14.5294 20.462 17.5354 20.29 19.3814 20.169C19.6663 20.1526 19.9363 20.0361 20.1437 19.8399C20.351 19.6438 20.4823 19.3806 20.5144 19.097C20.6484 17.893 20.7944 16.287 20.7944 15.077C20.7944 13.867 20.6484 12.261 20.5144 11.057C20.4823 10.7734 20.351 10.5102 20.1437 10.3141C19.9363 10.1179 19.6663 10.0014 19.3814 9.985C17.5354 9.864 14.5294 9.692 12.3334 9.692ZM5.18337 8.45C7.03237 8.33 10.0834 8.154 12.3334 8.154C14.5844 8.154 17.6354 8.329 19.4834 8.45C20.1287 8.49025 20.7392 8.75678 21.2074 9.2027C21.6757 9.64863 21.9717 10.2454 22.0434 10.888C22.1774 12.098 22.3334 13.777 22.3334 15.077C22.3334 16.377 22.1774 18.057 22.0434 19.267C21.9715 19.9094 21.6754 20.506 21.2072 20.9517C20.7389 21.3974 20.1286 21.6638 19.4834 21.704C17.6344 21.825 14.5834 22 12.3334 22C10.0824 22 7.03137 21.825 5.18337 21.704C4.53802 21.6638 3.92754 21.3972 3.4593 20.9513C2.99106 20.5054 2.69506 19.9086 2.62337 19.266C2.48937 18.056 2.33337 16.377 2.33337 15.076C2.33337 13.775 2.48937 12.098 2.62337 10.888C2.69506 10.2454 2.99106 9.64863 3.4593 9.2027C3.92754 8.75678 4.53802 8.49025 5.18337 8.45Z" fill="#01AFD2"/>
<path fill-rule="evenodd" clip-rule="evenodd" d="M12.3334 6.615C10.7334 6.615 8.58137 6.691 7.13337 6.75C6.54737 6.774 6.09537 7.185 6.02437 7.704C5.96437 8.14 5.92337 8.577 5.92337 8.924C5.9271 9.02739 5.90996 9.13046 5.87297 9.22708C5.83597 9.32369 5.77989 9.41186 5.70807 9.48632C5.63625 9.56078 5.55016 9.62 5.45494 9.66045C5.35972 9.7009 5.25733 9.72174 5.15387 9.72174C5.05042 9.72174 4.94803 9.7009 4.85281 9.66045C4.75759 9.62 4.6715 9.56078 4.59968 9.48632C4.52786 9.41186 4.47178 9.32369 4.43478 9.22708C4.39779 9.13046 4.38065 9.02739 4.38437 8.924C4.38437 8.474 4.43737 7.958 4.50037 7.497C4.68037 6.177 5.80237 5.265 7.07037 5.213C8.52037 5.153 10.6984 5.077 12.3334 5.077C13.9684 5.077 16.1474 5.153 17.5964 5.213C18.8644 5.265 19.9864 6.178 20.1664 7.497C20.2294 7.958 20.2824 8.474 20.2824 8.923C20.2861 9.02639 20.269 9.12946 20.232 9.22608C20.195 9.32269 20.1389 9.41086 20.0671 9.48532C19.9952 9.55978 19.9092 9.619 19.8139 9.65945C19.7187 9.6999 19.6163 9.72074 19.5129 9.72074C19.4094 9.72074 19.307 9.6999 19.2118 9.65945C19.1166 9.619 19.0305 9.55978 18.9587 9.48532C18.8869 9.41086 18.8308 9.32269 18.7938 9.22608C18.7568 9.12946 18.7396 9.02639 18.7434 8.923C18.7357 8.51493 18.7019 8.10777 18.6424 7.704C18.5714 7.184 18.1194 6.774 17.5334 6.75C16.0854 6.69 13.9334 6.615 12.3334 6.615Z" fill="#01AFD2"/>
<path fill-rule="evenodd" clip-rule="evenodd" d="M12.3334 3.538C11.3784 3.538 10.1394 3.592 9.15137 3.644C8.55437 3.676 8.09337 4.118 8.04137 4.673C8.00137 5.089 7.97437 5.506 7.97437 5.846C7.97969 5.95029 7.96375 6.05456 7.9275 6.15249C7.89126 6.25042 7.83548 6.33996 7.76354 6.41565C7.69161 6.49135 7.60504 6.55162 7.50908 6.5928C7.41313 6.63399 7.3098 6.65523 7.20537 6.65523C7.10095 6.65523 6.99762 6.63399 6.90167 6.5928C6.80571 6.55162 6.71914 6.49135 6.6472 6.41565C6.57527 6.33996 6.51949 6.25042 6.48325 6.15249C6.447 6.05456 6.43105 5.95029 6.43637 5.846C6.43637 5.436 6.46837 4.964 6.50937 4.529C6.63637 3.175 7.75237 2.178 9.06937 2.108C10.0634 2.055 11.3354 2 12.3334 2C13.3314 2 14.6044 2.055 15.5974 2.108C16.9144 2.178 18.0304 3.175 18.1574 4.528C18.1974 4.964 18.2304 5.436 18.2304 5.846C18.2357 5.95029 18.2197 6.05456 18.1835 6.15249C18.1473 6.25042 18.0915 6.33996 18.0195 6.41565C17.9476 6.49135 17.861 6.55162 17.7651 6.5928C17.6691 6.63399 17.5658 6.65523 17.4614 6.65523C17.357 6.65523 17.2536 6.63399 17.1577 6.5928C17.0617 6.55162 16.9751 6.49135 16.9032 6.41565C16.8313 6.33996 16.7755 6.25042 16.7392 6.15249C16.703 6.05456 16.6871 5.95029 16.6924 5.846C16.6924 5.506 16.6644 5.089 16.6254 4.673C16.5734 4.118 16.1124 3.676 15.5154 3.644C14.4557 3.58297 13.3947 3.54763 12.3334 3.538ZM15.0004 13.59C15.1226 13.7533 15.175 13.9584 15.1461 14.1604C15.1173 14.3623 15.0095 14.5445 14.8464 14.667L12.1114 16.717C11.9782 16.8167 11.8163 16.8706 11.6499 16.8706C11.4835 16.8706 11.3216 16.8167 11.1884 16.717L9.82037 15.692C9.73349 15.6338 9.65938 15.5585 9.60255 15.4707C9.54572 15.3829 9.50738 15.2844 9.48985 15.1813C9.47233 15.0782 9.47599 14.9726 9.50062 14.871C9.52524 14.7694 9.57032 14.6738 9.63309 14.5901C9.69586 14.5065 9.77501 14.4365 9.86572 14.3845C9.95643 14.3324 10.0568 14.2994 10.1607 14.2874C10.2646 14.2754 10.3698 14.2847 10.47 14.3147C10.5702 14.3447 10.6632 14.3948 10.7434 14.462L11.6494 15.141L13.9234 13.436C14.0867 13.3138 14.2918 13.2614 14.4937 13.2902C14.6956 13.3191 14.8779 13.4269 15.0004 13.59Z" fill="#01AFD2"/>
</svg>

<svg width="25" height="24"  xmlns="http://www.w3.org/2000/svg"><path fill-rule="evenodd" clip-rule="evenodd" d="M12.333 9.692c-2.196 0-5.2.172-7.048.293a1.21 1.21 0 00-1.133 1.072c-.134 1.204-.28 2.81-.28 4.02 0 1.21.146 2.816.28 4.02a1.21 1.21 0 001.133 1.071c1.847.122 4.852.294 7.048.294 2.196 0 5.202-.172 7.048-.293a1.21 1.21 0 001.133-1.072c.134-1.204.28-2.81.28-4.02 0-1.21-.146-2.816-.28-4.02a1.21 1.21 0 00-1.133-1.072c-1.846-.121-4.852-.293-7.048-.293zM5.183 8.45c1.85-.12 4.9-.296 7.15-.296 2.251 0 5.302.175 7.15.296a2.748 2.748 0 012.56 2.438c.134 1.21.29 2.889.29 4.189 0 1.3-.156 2.98-.29 4.19a2.748 2.748 0 01-2.56 2.437c-1.849.121-4.9.296-7.15.296s-5.302-.175-7.15-.296a2.748 2.748 0 01-2.56-2.438c-.134-1.21-.29-2.889-.29-4.19 0-1.301.156-2.978.29-4.188a2.748 2.748 0 012.56-2.438z" /><path fill-rule="evenodd" clip-rule="evenodd" d="M12.333 6.615c-1.6 0-3.752.076-5.2.135-.586.024-1.038.435-1.109.954-.06.436-.1.873-.1 1.22a.77.77 0 11-1.54 0c0-.45.053-.966.116-1.427.18-1.32 1.302-2.232 2.57-2.284 1.45-.06 3.628-.136 5.263-.136 1.635 0 3.814.076 5.263.136 1.268.052 2.39.965 2.57 2.284.063.461.116.977.116 1.426a.77.77 0 11-1.539 0 9.605 9.605 0 00-.1-1.219c-.072-.52-.524-.93-1.11-.954-1.448-.06-3.6-.135-5.2-.135z" /><path fill-rule="evenodd" clip-rule="evenodd" d="M12.333 3.538c-.955 0-2.194.054-3.182.106-.597.032-1.058.474-1.11 1.029a12.9 12.9 0 00-.067 1.173.77.77 0 11-1.538 0c0-.41.032-.882.073-1.317.127-1.354 1.243-2.351 2.56-2.421A66.96 66.96 0 0112.333 2c.998 0 2.271.055 3.264.108 1.317.07 2.433 1.067 2.56 2.42.04.436.073.908.073 1.318a.771.771 0 11-1.538 0c0-.34-.028-.757-.067-1.173-.052-.555-.513-.997-1.11-1.029a65.713 65.713 0 00-3.182-.106zM15 13.59a.77.77 0 01-.154 1.077l-2.735 2.05a.77.77 0 01-.923 0L9.82 15.692a.77.77 0 11.923-1.23l.906.679 2.274-1.705A.77.77 0 0115 13.59z" /></svg>
